X: 1
T: Nixon's Farewell
C: Curt Bouterse 1974
S: https://www.thursdaycontra.com/~spuds/tunes/reels/nixonsfarewell.abc
R: reel
L: 1/16
M: 2/4
K: D
A2 |\
"D"FA-A2 A3A | "G"BABc d2e2 | "D"f2fd g2f2 | "A"e6 (3ABc |\
"D"d2A2 F2A2 | "G"BABc d2g2 | "D"fedf "A"edc2 | "D"d6 :|
|: e2 |\
"D"f2fd "G"g2gd | "D"fgfe d2e2 | f2fd "G"gdf2 | "A"e6 e2 |\
"D"f2fd "G"g2gd | "D"fgfe d2a2 | fedf "A"edc2 | "D"d6 :|
